X:1
T:Adieu sweet Amarylis (520)
T:Adieu sweet Amarylis
T:John Wilbye (1574-1638)
T: 
T:520
C:John Wilbye
%%score 1 2 3 4
L:1/8
Q:1/2=50
M:2/2
K:F
V:1 treble nm="S"
V:2 treble nm="A"
V:3 treble-8 nm="T"
V:4 bass nm="B"
V:1
 z2!mp! G2 d2 d2 | d4 A4 | B2 G2 ^F2 F2 | G2 G2 z2 A2 | c2 =B2 A2 A2 | G4 ^F4 | z2 G2 d4 | %7
w: A- dieu,~ A-|dieu,~ A-|dieu,~ sweet~ A- ma-|ryl- lis,~ A-|dieu,~ sweet~ A- ma-|ryl- lis,~|A- dieu,~|
 z2 B2 d4 | z2 G2 d3 e | f2 d2 c4 | d4 z4 |!mf! A4 B4- | B4 G4 | c8 | A4 d4- | d2 c2 B4- | B4 A4 :| %17
w: A- dieu,~|A- dieu,~ sweet~|A- ma- ryl|lis,~|For~ since|_ to~|part,~|to~ part|_ your~ will|_ is,~|
 z4!pp! G4- | G4 A4- | A2 G2 G4- | G4 ^F4 | G4 z4 | z2!mf! d2 d2 d2 | c2 B4 A2 | B6 d2 | %25
w: O|_ hea\--|* vy~ tid\--||ing,|Here~ is~ for~|me~ no~ bid-|ing. Yet~|
 d3 c B2 d2 | f3 e d2 d2 | c2 B2 A2 G2 | ^F2 G4 F2 | G4 z2 d2 | d3 c B2 d2 | f3 e d2 d2 | %32
w: once~ a- gain,~ yet~|once~ a- gain,~ a-|gain, ere~ that~ I~|part with _|you,~ yet~|once~ a- gain,~ yet~|once~ a- gain,~ a-|
 c2 B2 A2 G2 |!>(! ^F2 G4 F2!>)! | G8 |!pp! A3 =B A2 G2 |!<(! ^F3 G A=B c2!<)! |!>(! =B4 A4!>)! | %38
w: gain,~ ere~ that~ I~|part with _|you,~|A- ma- ryl- lis,~|A- ma- ryl\-- * lis,~|sweet,~ A-|
 G2 d2 d4 | z2 =B2 d4 | z2 G2 d2 =B2 | A3 =B A2 G2 | ^F3 G A=B c2 | =B4 A4 | !fermata!G8 |] %45
w: dieu, A- ~dieu,|A- dieu,~|A- dieu,~ sweet~|A- ma- ryl- lis,~|A- ma- ryl\-- * lis,~|sweet,~ A-|dieu.~|
V:2
 z8 | z2!mp! G2 d2 d2 | d4 z2 A2 | B2 G2 ^F2 F2 | G4 D2 D2 | D6 A2 | B4 z2 A2 | G4 z2 ^F2 | %8
w: |A- dieu,~ A-|lis,~ A-|dieu,~ sweet~ A- ma-|ryl- lis,~ A-|dieu,~ A-|dieu,~ A-|~dieu, A-|
 G2 B2 B2 B2 | A2 F2 F4 | F8 |!mf! F8 | G8 | G4 A4 | z2 c2 B4- | B2 A2 G4- | G4 ^F4 :|!pp! G8 | %18
w: dieu,~ A- dieu,~ sweet~|A- ma- ryl-|lis,~|For~|since~|to~ part,~|to~ part|_ your~ will|_ is,~|O~|
 E4 E4 | D8 | D8 | z2!mf! G2 G2 G2 | D2 B2 B2 A2 | G2 G2 F4 | F4 z2 F2 | F2 F2 G2 B2 | A4 D4 | %27
w: hea- vy~|tid-|ing,~|Here~ is~ for~|me,~ here~ is~ for~|me~ no~ bid-|ing. Yet~|once~ a- gain,~ a-|gain,~ ere~|
 _E6 E2 | D4 D4 | D8 | z2 F2 G2 B2 | A2 A2 D2 G2 | _E6 E2 |!>(! D4 D4!>)! | D8 |!pp! D3 D D2 =B,2 | %36
w: that~ I~|part~ with~|you,~|yet~ once~ a-|gain,~ a- gain,~ ere~|that~ I~|part~ with~|you,~|A- ma- ryl- lis,~|
!<(! D3 D D2 E2!<)! |!>(! D4 D4!>)! | D4 z2 ^F2 | G4 z2 A2 | G2 G2 ^F2 D2 | D3 D D2 =B,2 | %42
w: A- ma- ryl- lis,~|sweet,~ a|dieu,~ A-|dieu,~ A-|dieu,~ A- dieu,~ sweet~|A- ma- ryl- lis,~|
 D3 D D2 E2 | D4 D4 | !fermata!D8 |] %45
w: A- ma- ryl- lis,~|sweet,~ A-|dieu.~|
V:3
!mp! g4 ^f2 d2 | B3 c d4 | G4 z2 d2 | B3 c d2 d2 | G2 G2 z2 A2 | B2 G2 d2 d2 | d2 d2 z2 d2 | %7
w: A- dieu,~ sweet~|A- ma- ryl-|lis,~ A-|dieu,~ sweet~ A- ma-|ryl- lis, A-|dieu,~ sweet A- ma-|ryl- lis, A-|
 d4 z2 d2 | B3 c d2 B2 | c2 B4 A2 | F4!mf! d4- | d4 d4- | d4 c2 B2 | _e4 c4 | f8 | d8- | d8 :| %17
w: dieu,~ A-|dieu,~ sweet A- ma-|ryl- * *|lis, For|_ since|_ to _|part your|will|is,|_|
!pp! d8 | c8- | c4 B4 | A8 | =B8 | z2!mf! d2 f2 f2 | _e2 d2 c4 | B2 f2 f3 _e | d4 z2 d2 | %26
w: O~|hea-|* vy|tid-|ing,|Here~ is~ for~|me~ no~ bid-|ing. Yet once a-|gain, yet|
 d3 c B2 B2 | A2 G2 c4- | c2 B2 A2 A2 | G2 g2 g3 g | d4 z2 d2 | d3 c B2 B2 | A2 A2 c4- | %33
w: once a- gain, a-|gain, ere that|_ I part with~|you, yet once a-|gain, yet|once a- gain,~ a|gain, ere that|
!>(! c2 B2 A2 A2!>)! | =B8 |!pp! A3 A ^F2 G2 |!<(! A3 A A2 A2!<)! |!>(! D2 G2 G2 d2!>)! | %38
w: _ I part with|you,~|A- ma- ryl- lis,~|A- ma- ryl- lis,~|sweet,~ * * a|
 d4 z2 A2 | g4 z2 d2 | d2 G2 A2 G2 | ^F3 G F2 G2 | A2 A2 A2 A2 | D2 G2 G2 ^F2 | !fermata!G8 |] %45
w: dieu,~ a|dieu,~ A-|dieu,~ A- dieu,~ sweet~|A- ma- ryl- lis,~|A- ma- ryl- lis,~|sweet, A- dieu, A|dieu.~|
V:4
 z8 |!mp! G,4 ^F,2 D,2 | B,,3 C, D,4 | G,,4 z2 D,2 | E,2 G,2 ^F,2 F,2 | G,4 D,2 D,2 | G,4 z2 ^F,2 | %7
w: |A- dieu,~ sweet~|A- ma- ryl-|lis,~ A|dieu,~ sweet~ A ma|ryl lis, A-|dieu,~ A-|
 G,4 z2 D,2 | G,3 A, B,2 G,2 | F,8 | B,,4 z4 |!mf! D,8 | _E,8 | C,4 F,4- | F,4 D,4 | G,8 | D,8 :| %17
w: dieu,~ A-|dieu,~ sweet~ A- ma-|ryl-|lis,~|For~|since~|to~ part,|_ your~|will~|is,~|
!pp! =B,,8 | C,4 C,4 | D,8- | D,8 | G,,4 z2!mf! G,2 | G,2 G,2 D,4 | _E,4 F,4 | B,,4 z2 B,2 | %25
w: O~|hea- vy~|tid-||ing,~ Here~|is~ for~ me~|no~ bid-|ing. Yet~|
 B,3 A, G,2 G,2 | D,4 G,4 | C,4 C,4 | D,4 D,4 | G,,4 z2 G,2 | B,3 A, G,2 G,2 | D,4 G,4 | C,4 C,4 | %33
w: once~ a- gain,~ a-|gain,~ ere~|that~ I~|part~ with~|you,~ yet~|once~ a- gain,~ a-|gain,~ ere~|that~ I~|
!>(! D,4 D,4!>)! | G,8 |!pp! ^F,3 G, D,2 E,2 |!<(! D,3 D, D,2 A,,2!<)! |!>(! =B,,3 C, D,2 D,2!>)! | %38
w: part~ with~|you,~|A- ma- ryl- lis,~|A- ma- ryl- lis,~|sweet,~ a dieu,~ a|
 G,,4 z2 D,2 | G,4 z2 ^F,2 | G,2 E,2 D,2 G,2 | D,3 G,, D,2 E,2 | D,3 D, D,2 A,,2 | %43
w: dieu,~ a|dieu,~ A-|dieu,~ A- dieu,~ sweet~|A- ma- ryl- lis,~|A- ma- ryl- lis,~|
 =B,,3 C, D,2 D,2 | !fermata!G,,8 |] %45
w: sweet,~ A- dieu,~ A-|dieu.~|

